icons/speaker-decrease-outline.svg

<svg xmlns="http://www.w3.org/2000/svg" width="24" height="24" viewBox="0 0 24 24">
  <path d="M11.375305,4.21913119 C12.0300683,3.69532051 13,4.16149379 13,5 L13,5 L13,19 C13,19.8385062 12.0300683,20.3046795 11.375305,19.7808688 L11.375305,19.7808688 L6.65,16 L4,16 C2.9456382,16 2.08183488,15.1841222 2.00548574,14.1492623 L2.00548574,14.1492623 L2,14 L2,10 C2,8.8954305 2.8954305,8 4,8 L4,8 L6.649,8 Z M11,7.079 L7.62469505,9.78086881 C7.447382,9.92271925 7.2270715,10 7,10 L7,10 L4,10 L4,14 L7,14 C7.2270715,14 7.447382,14.0772808 7.62469505,14.2191312 L7.62469505,14.2191312 L11,16.92 L11,7.079 Z M16.4371031,8.70209909 C18.3897246,10.6547205 18.3897246,13.8205454 16.4371031,15.7731669 C16.0465788,16.1636912 15.4134138,16.1636912 15.0228895,15.7731669 C14.6323652,15.3826426 14.6323652,14.7494776 15.0228895,14.3589533 C16.1944624,13.1873805 16.1944624,11.2878855 15.0228895,10.1163127 C14.6323652,9.72578836 14.6323652,9.09262338 15.0228895,8.70209909 C15.4134138,8.3115748 16.0465788,8.3115748 16.4371031,8.70209909 Z"/>
</svg>

<svg xmlns="http://www.w3.org/2000/svg" viewBox="0 0 24 24">
  <path d="M11.38 4.22A1 1 0 0 1 13 5v14a1 1 0 0 1-1.62.78L6.65 16H4a2 2 0 0 1-2-1.85V10c0-1.1.9-2 2-2h2.65zM11 7.08l-3.38 2.7A1 1 0 0 1 7 10H4v4h3a1 1 0 0 1 .62.22l3.38 2.7V7.08zm5.44 1.62a5 5 0 0 1 0 7.07 1 1 0 0 1-1.42-1.41 3 3 0 0 0 0-4.24 1 1 0 0 1 1.42-1.42z"/>
</svg>
